static/img/menus/ico-xapp-pause.svg

<svg width="16" height="16" viewBox="0 0 16 16" fill="none" xmlns="http://www.w3.org/2000/svg">
<rect width="16" height="16" fill="#333333"/>
<path d="M9.66646 13.5551C9.51913 13.5551 9.37784 13.4966 9.27366 13.3924C9.16948 13.2882 9.11095 13.147 9.11095 12.9996V3.00034C9.11095 2.85301 9.16948 2.71172 9.27366 2.60754C9.37784 2.50336 9.51913 2.44482 9.66646 2.44482H11.8885C12.0359 2.44482 12.1771 2.50336 12.2813 2.60754C12.3855 2.71172 12.444 2.85301 12.444 3.00034V12.9996C12.444 13.147 12.3855 13.2882 12.2813 13.3924C12.1771 13.4966 12.0359 13.5551 11.8885 13.5551H9.66646ZM4.1113 13.5551C3.96397 13.5551 3.82268 13.4966 3.7185 13.3924C3.61432 13.2882 3.55579 13.147 3.55579 12.9996V3.00034C3.55579 2.85301 3.61432 2.71172 3.7185 2.60754C3.82268 2.50336 3.96397 2.44482 4.1113 2.44482H6.33337C6.4807 2.44482 6.62199 2.50336 6.72617 2.60754C6.83035 2.71172 6.88888 2.85301 6.88888 3.00034V12.9996C6.88888 13.147 6.83035 13.2882 6.72617 13.3924C6.62199 13.4966 6.4807 13.5551 6.33337 13.5551H4.1113Z" fill="white"/>
<path d="M11.8885 13.555C12.1955 13.555 12.4445 13.306 12.4445 13V3.00076C12.4445 2.69377 12.1955 2.4448 11.8885 2.4448H9.66667C9.35972 2.4448 9.11071 2.69377 9.11071 3.00076V13C9.11071 13.306 9.35972 13.555 9.66667 13.555H11.8885ZM6.33293 13.555C6.63988 13.555 6.88888 13.306 6.88888 13V3.00076C6.88888 2.69377 6.63988 2.4448 6.33293 2.4448H4.11107C3.80408 2.4448 3.55613 2.69377 3.55613 3.00076V13C3.55613 13.306 3.80408 13.555 4.11107 13.555H6.33293ZM11.8885 14.1105H9.66667C9.05382 14.1105 8.55519 13.6124 8.55519 13V3.00076C8.55519 2.3879 9.05382 1.88928 9.66667 1.88928H11.8885C12.5014 1.88928 13 2.3879 13 3.00076V13C13 13.6124 12.5014 14.1105 11.8885 14.1105ZM6.33293 14.1105H4.11107C3.49876 14.1105 3.00061 13.6124 3.00061 13V3.00076C3.00061 2.3879 3.49876 1.88928 4.11107 1.88928H6.33293C6.94581 1.88928 7.4444 2.3879 7.4444 3.00076V13C7.4444 13.6124 6.94581 14.1105 6.33293 14.1105Z" fill="white"/>
</svg>

<svg xmlns="http://www.w3.org/2000/svg" width="16" height="16" fill="none" viewBox="0 0 16 16"><path fill="#333" d="M0 0h16v16H0z"/><path fill="#fff" d="M9.666 13.555A.555.555 0 0 1 9.111 13V3a.555.555 0 0 1 .555-.555h2.223a.555.555 0 0 1 .555.555v10a.555.555 0 0 1-.556.555zm-5.555 0A.555.555 0 0 1 3.556 13V3a.555.555 0 0 1 .555-.555h2.222A.556.556 0 0 1 6.89 3v10a.555.555 0 0 1-.556.555z"/><path fill="#fff" d="M11.889 13.555a.556.556 0 0 0 .556-.555V3a.556.556 0 0 0-.556-.555H9.667A.556.556 0 0 0 9.11 3V13c0 .306.249.555.556.555zm-5.556 0A.556.556 0 0 0 6.889 13V3a.556.556 0 0 0-.556-.555H4.11A.555.555 0 0 0 3.556 3V13c0 .306.248.555.555.555zm5.556.556H9.667A1.11 1.11 0 0 1 8.555 13V3c0-.612.499-1.11 1.112-1.11h2.222C12.5 1.89 13 2.387 13 3v10c0 .612-.499 1.11-1.111 1.11m-5.556 0H4.11c-.612 0-1.11-.499-1.11-1.111V3c0-.612.498-1.11 1.11-1.11h2.222c.613 0 1.111.498 1.111 1.11v10c0 .612-.498 1.11-1.111 1.11"/></svg>
